X: 422
T: Bir Zaman idi
C: Hatibzâde Osman Efendi
O: Turkey
F: http://compmusic.upf.edu/node/140
N: neva--nakis--yuruksemai--bir_zaman--hatibzade_osman_efendi
N: makam= neva
N: form= nakis
N: usul= yuruksemai = 6/8
M: 6/8
L: 1/16
K: C _2/4B ^3/4f  
Q: 1/4=93
%%MIDI tuningsystem comma53
d4d2c2 _1/4B4c4 d6z2  | d4d4 e4e2d2 d2c2_1/4B2d2  | \
w:   |   | 
c2_1/4B2c4 c4c2B2 g6^f2  | 
w:   | 
^f4e2d2 e4=f2e2 d2d6  | z2d4d2 c2_1/4B4c4d6  | \
w:   |   | 
z2d4d4e4e2 d2d2c2_1/4B2  | 
w:   | 
d2c2_1/4B2c4c4c2 B2g6  | ^f2f4e2 d2e4=f2 e2d2d6z2g4 g2^f2f2e2 f2e2f2g6f2g4g2f2a4a2g2gf  | 
w:   |   | 
e2^f2g2f4f4f2 e2f2e2f2  | g2^f2e2e4f2e2d2 e4g2f2  | \
w:   |   | 
e2d6 z2d4d2 c2d2c2_1/4B2  | 
w:   | 
c2d8d4d4e4e2  | d2d2c2_1/4B2 d2c4c4c4c2  | \
w:   |   | 
_1/4B2g4=f2 e2e4f2 e2d2d2c2  | 
w:   | 
d4d2e2 d2c2d2c2 _1/4B2A2A4  | A4z8G4 d4d2d2  | \
w:   |   | 
d4d8d4 d4c4  | 
w:   | 
c2_1/4B2=f4 e2d2d4 d4d3c  | _1/4B2c2d8G4 d4d2d2  | \
w:   |   | 
d4d8d4 d4c4  | 
w:   | 
c2_1/4B2=f4 e2d2d4 d4d3c  | _1/4B2c2d8G4 d4d4  | \
w:   |   | 
d4d4 d4d2^c2 d4d4  | 
w:   | 
d2^c2d6e2d4 e4d4  | c4_1/4B2c2 B2A2B2c2 B4A4  | \
w:   |   | 
_1/4B2c2B4 c4d4 d4d3c  | 
w:   | 
_1/4B2c2d8G4 d4d2d2  | d4d8d2^c2 d4d4  | \
w:   |   | 
d2^c2d6e2d4 e4e4  | =f2e2d2c4c4^f2 g2f4e4f2g2f4g4g4g4g3fe2f2g8g4g2f2f2  | 
w:   |   | 
e2^f2e2f2 g6f2 g4g2f2  | a4a2g2 g^fe2f2g2 f4f4  | \
w:   |   | 
^f4f2e2 f2g2f2e2 e4f2e2  | 
w:   | 
d2e4g2 ^f2e2d6z2d4  | d2c2d2c2 _1/4B2c2d8d4  | \
w:   |   | 
d4e4 e2d2d2c2 _1/4B2d2c4  | 
w:   | 
c4c4 c2_1/4B2g4 =f2e2e4  | =f2e2d2d2 c2d4d2 e2d2c2d2  | \
w:   |   | 
c2_1/4B2A2A4A4z8a4a2g2^f4g4a8a4a4a4d'2c'2c'2 _1/4b2b2a2a2  | 
w:   | 
g2g4g2 ^f2f2e2f2 g2f2e2f2  | g2^f2e2a2 g2f2e2d8a4a2g2f4g4a8a4a4a4d'2c'2c'2 _1/4b2b2a2a2  | 
w:   |   | 
g2g4g2 ^f2f2e2f2 g2f2e2e4f2e2d2 e4g2f2 e2d6  | \
w:   | 
z2d4d2 c2_1/4B4c4d8d4d4e4e2 d2d2c2B2  | 
w:   | 
d2c2_1/4B2c4c4c2 B2g6  | ^f2f4e2 d2e4=f2 e2d2d6z2G4 d4d2d2 d4d8d4 d4c4 c2_1/4B2f4  | 
w:   |   | 
e2d2d4 d4d3c _1/4B2c2d8G4 d4d2d2 d4d8d4 d4c4 c2B2=f4  | 
w:   | 
e2d2d4 d4d3c _1/4B2c2d8G4 d4d4 d4d4  | \
w:   | 
d4d2^c2 d4d4 d2c2d6e2d4 e4d4 =c4_1/4B2c2  | 
w:   | 
_1/4B2A2B2c2 B4A4 B2c2B4  | c4d4 d4d3c _1/4B2c2d8G4 d4d2d2 d4d8d2^c2 d4d4 d2c2d6e2d4 e4e4 =f2e2d2=c4c4^f2 g2f4e4f2g2f4g4g4g4g3fe2f2g8g4g2f2f2 e2f2e2f2  | 
w:   |   | 
g6^f2 g4g2f2 a4a2g2  | g^fe2f2g2 f4f4 f4f2e2  | \
w:   |   | 
^f2g2f2e2 e4f2e2 d2e4g2  | 
w:   | 
^f2e2d6z2d4 d2c2d2c2  | _1/4B2c2d8d4 d4e4  | \
w:   |   | 
e2d2d2c2 _1/4B2d2c4 c4c4  | 
w:   | 
c2_1/4B2g4 =f2e2e4 f2e2d2d2  | c2d4d2 e2d2c2d2 c2_1/4B2A2A4A4z8|
w:   |   | 


